X: 10501
Q: "Andante Affettuoso"
M: 2/4
L: 1/16
K: Bb
[|\
(fe) (dc) ((3BcBA2) | B2 g2 (fe) (dc) | B2 c2 d2 B2 |
(ed) (ef) (ge) (dc) | B2 A2 B2 z2 | aa/g/ac' b4 | AA/G/Ac B4 |
d3 B f2 c2 | d3 B f2 c2 | f2 c2 _d2 c2 |
_d3 =E HF2 F2 | (Bd) (ce) (df) (eg) | (fg) (fe) d2 B2 |
(Bd) (ce) (df) (eg) | G2 g2 Hf2 z2 | (ed) (ef) (ge) (dc) |



